public/svgs/duotone/signal-bars-slash.svg

<svg xmlns="http://www.w3.org/2000/svg" viewBox="0 0 640 512"><!-- Font Awesome Pro 6.0.0-alpha2 by @fontawesome - https://fontawesome.com License - https://fontawesome.com/license (Commercial License) --><defs><style>.fa-secondary{opacity:.4}</style></defs><path d="M351.998 463.992C351.998 490.393 373.598 511.992 399.998 511.992S447.998 490.393 447.998 463.992V447.803L351.998 372.563V463.992ZM80 383.994C53.6 383.994 32 405.594 32 431.994V463.992C32 490.393 53.6 511.992 80 511.992S128 490.393 128 463.992V431.994C128 405.594 106.4 383.994 80 383.994ZM399.998 127.998C373.598 127.998 351.998 149.598 351.998 175.998V250.576L447.998 325.818V175.998C447.998 149.598 426.398 127.998 399.998 127.998ZM559.998 0C533.598 0 511.998 21.6 511.998 48V375.98L607.998 451.221V48C607.998 21.6 586.398 0 559.998 0ZM192 304V464C192 490.4 213.6 512 240 512S288 490.4 288 464V322.596L213.398 264.125C200.527 272.758 192 287.424 192 304Z" class="fa-secondary"/><path d="M634.874 502.805C626.749 513.211 611.686 515.086 601.186 506.883L9.189 42.89C-1.249 34.718 -3.061 19.625 5.126 9.187C9.845 3.156 16.907 0 24.032 0C29.189 0 34.407 1.672 38.814 5.109L630.811 469.102C641.249 477.274 643.061 492.367 634.874 502.805Z" class="fa-primary"/></svg>

<svg xmlns="http://www.w3.org/2000/svg" viewBox="0 0 640 512"><!--! Font Awesome Pro 6.5.1 by @fontawesome - https://fontawesome.com License - https://fontawesome.com/license (Commercial License) Copyright 2023 Fonticons, Inc. --><defs><style>.fa-secondary{opacity:.4}</style></defs><path class="fa-secondary" d="M608 451.2V48c0-26.5-21.5-48-48-48s-48 21.5-48 48V376l96 75.2zM448 325.8V176c0-26.5-21.5-48-48-48s-48 21.5-48 48v74.6l96 75.2zM560 512l-.3 0h.7l-.3 0zM448 464V449l-96-75.6V464c0 26.5 21.5 48 48 48s48-21.5 48-48zM288 322.9l-74.7-58.8C200.5 272.7 192 287.4 192 304V464c0 26.5 21.5 48 48 48s48-21.5 48-48V322.9zM80 384c-26.5 0-48 21.5-48 48v32c0 26.5 21.5 48 48 48s48-21.5 48-48V432c0-26.5-21.5-48-48-48z"/><path class="fa-primary" d="M5.1 9.2C13.3-1.2 28.4-3.1 38.8 5.1l592 464c10.4 8.2 12.3 23.3 4.1 33.7s-23.3 12.3-33.7 4.1L9.2 42.9C-1.2 34.7-3.1 19.6 5.1 9.2z"/></svg>
